X:087 
T:Jack Maguire's Reel 
T:The Snake, Sherlock's, [Noisy] Curlew
B:CRE3.105 (RÃÂÃÂÃÂÃÂ­l SheÃÂÃÂÃÂÃÂ¡in Mhig Uidhir)
F:file ID: cre.3/087jack_m
R:reel
L:1/8
Q:180
M:C
K:D
DFF2 DGG2|DFAF GEc2|DFF2 ABde|fdAD GFE2|
DFF2 DGBG|DFAF GEcE|DFF2 A2de|(3fed AG FDD2:|
|:fdAd g3a|faaf gfeg|faaf g2eg|fdAG FA (3dcd|
fdAd gbag|f2af gee2|(3fed AF G2eg|1 fdAG FDD2:|\
[2 fdAG FAEF||

%%%

